!! 00026] TT[TB
!! Eigene Aufnahme, Guangzhou, 5.5.87
!!!OTL: Shui ba adi
!!!ARE: Hainan
!! Ethnic Group: Li
!! MM, (Kopie! vgl. Bandprotokoll)
!!!SCT: C0939
!!!YEM: Copyright 1995, estate of Helmut Schaffrath.
**kern
*ICvox
*Ivox
*M2/4
*k[f#]
*G:
{8ee
16gg
16ee
8gg
16gg
16aa
=1
4bb
4bb
=2
8bb
8bb
8aa
16bb
16aa
=3
8.gg
16ee
4gg}
=4
{8gg
8bb
8aa
16aa
16bb
=5
8.gg
16ee
4gg
=6
8gg
8ee
8aa
16aa
16gg
=7
8.ee
16dd
4ee}
=8
{8ee
16gg
16ee
8gg
16aa
16bb
=9
4bb
4bb
=10
8eee
8eee
8ddd
16eee
16ddd
=11
8.bb
16aa
4bb}
=12
{8bb
8eee
8ddd
16eee
16ddd
=13
8.bb
16aa
4bb
=14
8bb
8gg
8aa
16aa
16gg
=15
8.ee
16dd
4ee}
=16
{8gg
8ee
8gg
16gg
16aa
=17
2bb
=18
4bb
16bb
16aa
16gg
16ee
=19
2bb}
=20
{8ee
16gg
16ee
8gg
8bb
=21
2aa
=22
8gg
8ee
8aa
16gg
16ee
=23
2ee}
=24
{8bb
8gg
8bb
8bb
=25
2ddd
=26
8bb
16bb
16ddd
8eee
16ddd
16bb
=27
2ddd}
=28
{8bb
8gg
8bb
16bb
16ddd
=29
2bb
=30
8bb
8gg
8aa
16gg
16ee
=31
2gg}
=32
{8bb
8gg
8aa
16aa
16gg
=33
2ee
=34
2gg
=35
2ee
=36
2bb
=37
4.b
8gg
=38
2ee}
==
!!!AGN: Erge; Cuimian qu(Cai cha diao).Hong haizi shuijiao shi chang
!! Die Saengerin Lei Huilan ist Angehoerige der Zhuang Minderheit und
!!    studiert an der Guangzhouer Musikhochschule.
!!    Aufgenommen am 5.5.87
!!!ONB: ESAC (Essen Associative Code) Database: CHINA
!!!AMT: simple duple
!!!AIN: vox
!!!EED: Helmut Schaffrath
!!!EEV: 1.0
*-
